X:13
T:PAT CARNEY'S -- REEL.
T:Paddy Murphy's Wife
R:reel
Z:John B. Walsh, 5/8/2002 <walsh:mat::h.ubc.ca>
Z:The low C's are nat::ural too
M:2/4
L:1/16
K:D
uG2|((3FED)(AF) BGAF|EG=cG ECCE|((3FED)(AF) BGAF|Dddc dDDG|
((3FED)(AF) BGAF|EG=cG ECCE|((3FED)(AF) BGAF|Dddc (dD).D2:|
|:(fa)da fdad|eg=cg ecgc|fada fdad|((3Bcd)(AG) FDDg|
(fa)da fdad|eg=cg ecgc|afge fdec|dABG (FD).D2:|
